X: 21556
T: Kilfenora Lass, The
R: jig
M: 6/8
K: Edorian
|:BEE B,EE|BEE Edc|B2A ~F2E|ADD DFA|
BEE FEE|BEE EFA|~B2A F2E|1 FDD DFA:|2 FDD D2c||
|:~d3 Bcd|Bed cBA|~d3 Bcd|ecA ABc|
~d3 Bcd|Bed cBA|B2A ~F2E|1 FDD D2c:|2 FDD DFA||

